X:23022
T:Waltz for the Valeta
R:Waltz
C:Trad, via Percy Brown
O:England, Suffolk
Z:Paul Hardy's Session Tunebook 2015 (see www.paulhardy.net). Creative Commons cc by-nc-sa licenced.
M:3/4
L:1/4
Q:1/4=150
K:C
"C"C E G|"C"G2 "Am"A|A3|"C"G3|C E G|G2 "Am"A|A3|"C"G3|c G c|"Em"B3|"Am"A "F"F "Am"A|"C"G3|
|1 "C"C2 E|"G"D2 "C"C|G "Am"A "C"G|"F"F "C"E "G"D:|2 "F"F "C"E "Am"A|"C"E2 "G"D|C "C"E "G"G|"C"c3||
|:"C"c/c/ c c|"Bm" B/B/ "Em"B B|"Am"A/A/ A A|"C"G3|"F"F/F/ F F|"C"E/E/ E E|"G"D d "C"c|"Em"B "Am"A "C"G|
"C"c/c/ "C"c "C"c|"Bm" B/B/ "Em"B B|"Am"A/A/ A A|"C"G3|"F"F "C"E "Am"A|"C"E2 "G"D|"C"C E "G"G|"C"c3:|

